usr/share/icons/biglinux-icons-material-dark/16/actions/snap-bounding-box-midpoints.svg

<svg xmlns="http://www.w3.org/2000/svg" viewBox="0 0 16 16">
<defs id="defs3051">
<style id="current-color-scheme" type="text/css">
.ColorScheme-Text{color:#dedede}.ColorScheme-Highlight{color:#3daee9}
</style>
</defs>
<path d="M2 2v3h3V2zm9 0v3h3V2zM3 3h1v1H3zm3 0v1h1V3zm3 0v1h1V3zm3 0h1v1h-1zM3 6v1h1V6zm0 3v1h1V9zm-1 2v3h3v-3zm9 0v3h3v-3zm-8 1h1v1H3zm3 0v1h1v-1zm3 0v1h1v-1zm3 0h1v1h-1z" class="ColorScheme-Text" style="fill:currentColor;fill-opacity:1;stroke:none"/>
<path d="M431.71 537.79v4h4v-4zm1 1h2v2h-2z" class="ColorScheme-Highlight" style="fill:currentColor;fill-opacity:1;stroke:none" transform="translate(-421.71 -531.79)"/>
</svg>

<svg xmlns="http://www.w3.org/2000/svg" viewBox="0 0 16 16">
  <defs id="defs3051">
    <style type="text/css" id="current-color-scheme">
      .ColorScheme-Text {
        color:#dedede;
      }
      .ColorScheme-Highlight {
        color:#3daee9;
      }
      </style>
  </defs>
  <g transform="translate(-421.71-531.79)" >
  <path 
        style="fill:currentColor;fill-opacity:1;stroke:none"
        d="M 2 2 L 2 5 L 5 5 L 5 2 L 2 2 z M 11 2 L 11 5 L 14 5 L 14 2 L 11 2 z M 3 3 L 4 3 L 4 4 L 3 4 L 3 3 z M 6 3 L 6 4 L 7 4 L 7 3 L 6 3 z M 9 3 L 9 4 L 10 4 L 10 3 L 9 3 z M 12 3 L 13 3 L 13 4 L 12 4 L 12 3 z M 3 6 L 3 7 L 4 7 L 4 6 L 3 6 z M 3 9 L 3 10 L 4 10 L 4 9 L 3 9 z M 2 11 L 2 14 L 5 14 L 5 11 L 2 11 z M 11 11 L 11 14 L 14 14 L 14 11 L 11 11 z M 3 12 L 4 12 L 4 13 L 3 13 L 3 12 z M 6 12 L 6 13 L 7 13 L 7 12 L 6 12 z M 9 12 L 9 13 L 10 13 L 10 12 L 9 12 z M 12 12 L 13 12 L 13 13 L 12 13 L 12 12 z "
       transform="translate(421.71,531.79)"
        class="ColorScheme-Text"
        />
  <path
        style="fill:currentColor;fill-opacity:1;stroke:none"
        d="m431.71 537.79v4h4v-4zm1 1h2v2h-2z"
        class="ColorScheme-Highlight"
      />
  </g>
</svg>
